img/search.svg

<?xml version="1.0" encoding="UTF-8"?>
<!-- Generated by Pixelmator Pro 3.1 -->
<svg width="50" height="50" viewBox="0 0 50 50" xmlns="http://www.w3.org/2000/svg" xmlns:xlink="http://www.w3.org/1999/xlink">
    <path id="path1" fill="#currentcolor" fill-rule="evenodd" stroke="none" d="M 25 49.976563 C 38.676472 49.976563 50 38.628525 50 24.976563 C 50 11.300091 38.651962 -0.023438 24.975491 -0.023438 C 11.323529 -0.023438 0 11.300091 0 24.976563 C 0 38.628525 11.34804 49.976563 25 49.976563 Z M 25 45.809895 C 13.431373 45.809895 4.191176 36.545189 4.191176 24.976563 C 4.191176 13.407936 13.406863 4.14323 24.975491 4.14323 C 36.544117 4.14323 45.833332 13.407936 45.833332 24.976563 C 45.833332 36.545189 36.568626 45.809895 25 45.809895 Z M 22.328432 32.354012 C 24.313726 32.354012 26.17647 31.765778 27.745098 30.785385 L 34.019608 37.035385 C 34.509804 37.550091 35.049019 37.770679 35.759804 37.770679 C 36.936275 37.770679 37.745098 36.912838 37.745098 35.687347 C 37.745098 35.123619 37.475491 34.608917 37.083332 34.192249 L 30.759804 27.84421 C 31.862745 26.226563 32.524509 24.265778 32.524509 22.157934 C 32.524509 16.545189 27.941177 11.961857 22.328432 11.961857 C 16.715687 11.961857 12.132353 16.569698 12.132353 22.157934 C 12.132353 27.74617 16.715687 32.354012 22.328432 32.354012 Z M 22.328432 29.020679 C 18.578432 29.020679 15.465686 25.907934 15.465686 22.157934 C 15.465686 18.407934 18.578432 15.295189 22.328432 15.295189 C 26.078432 15.295189 29.166666 18.383425 29.166666 22.157934 C 29.166666 25.907934 26.078432 29.020679 22.328432 29.020679 Z"/>
</svg>

<svg width="50" height="50" viewBox="0 0 50 50" xmlns="http://www.w3.org/2000/svg" xmlns:xlink="http://www.w3.org/1999/xlink">
	<path id="path1" fill="#currentcolor" fill-rule="evenodd" stroke="none" d="M25 49.98c13.68 0 25-11.35 25-25 0-13.68-11.35-25-25.02-25A25.16 25.16 0 0 0 0 24.98a25.2 25.2 0 0 0 25 25Zm0-4.17A20.73 20.73 0 0 1 4.2 24.98 20.71 20.71 0 0 1 24.97 4.14a20.77 20.77 0 0 1 20.85 20.84A20.75 20.75 0 0 1 25 45.8Zm-2.67-13.46c1.98 0 3.85-.58 5.42-1.56l6.27 6.25c.49.51 1.03.73 1.74.73 1.18 0 1.99-.86 1.99-2.08a2.2 2.2 0 0 0-.67-1.5l-6.32-6.35a10.08 10.08 0 0 0 1.76-5.68c0-5.61-4.58-10.2-10.2-10.2-5.6 0-10.19 4.61-10.19 10.2 0 5.59 4.59 10.2 10.2 10.2Zm0-3.33a6.91 6.91 0 0 1-6.86-6.86 6.91 6.91 0 0 1 6.86-6.86 6.88 6.88 0 0 1 6.84 6.86 6.9 6.9 0 0 1-6.84 6.86Z"/>
</svg>
